X:1
T:Cuba, 10.10.10.10
T:Cuba, 10.10.10.10
T:Templi Carmina, 1853
T:Public Domain Courtesy of the Cyber Hymnal™
C:Templi Carmina, 1853
Z:Public Domain
Z:Courtesy of the Cyber Hymnal™
%%score ( 1 2 ) ( 3 4 )
L:1/8
M:2/2
K:A
V:1 treble 
V:2 treble 
V:3 bass 
V:4 bass 
V:1
 E4 | [EA]4 [DB]4 | [Ec]2 [GB]2 [FA]2 [EG]2 | [DF]4 [DF]4 | [CE]4 E4 | [EA]4 [DB]4 | %6
 [Ec]2 [GB]2 [FA]2 [EG]2 | F4 [EG]4 | [EA]4 [CA]4 | [DB]4 [Ec]4 | [Fd]2 [Ec]2 [FB]2 [FA]2 | %11
 [EG]4 [^DA]4 | [EB]4 E4 | [EA]4 [DB]4 | [Ec]2 [GB]2 [FA]2 [EG]2 | F4 [EG]4 | [EA]4 |] %17
V:2
 E4 | x8 | x8 | x8 | x8 | x8 | x8 | F4 x4 | x8 | x8 | x8 | x8 | x4 E4 | x8 | x8 | D2 F2 x4 | x4 |] %17
V:3
 E,4 | [C,E,]4 [B,,G,]4 | [A,,A,]2 [E,D]2 [F,C]2 [C,B,]2 | [D,A,]4 D,4 | [A,,A,]4 E,4 | %5
 [C,E,]4 [B,,G,]4 | [A,,A,]2 [E,D]2 [F,C]2 [C,B,]2 | A,2 D2 [E,B,]4 | [A,,C]4 [F,C]4 | %9
 [D,B,]4 [C,^A,]4 | [B,,B,]2 [C,^A,]2 [D,B,]2 [^D,B,]2 | [E,B,]4 [F,A,]4 | [E,G,]4 E,4 | %13
 [C,E,]4 [B,,G,]4 | [A,,A,]2 [E,D]2 [F,C]2 [C,B,]2 | A,2 D2 [E,B,]4 | [A,,C]4 |] %17
V:4
 E,4 | x8 | x8 | x8 | x4 E,4 | x8 | x8 | D,4 x4 | x8 | x8 | x8 | x8 | x4 E,4 | x8 | x8 | D,4 x4 | %16
 x4 |] %17

